X:44
M:6/8
L:1/8
K:G
|:ded b2c|cdc a2B|BcB g2G|FGA AFD|ded b2c|cdc gfe|dcB A3|G3 G,3:|

